!! 00000] TT[WS
!!!OTL: Zhai putao
!!!ARE: Asia, China,ÿShanxi Xiangheng
!! Ethnic Group: Han
!! WI, 73 (2)
!!!SCT: J0088
!!!YEM: Copyright 1995, estate of Helmut Schaffrath.
**kern
*ICvox
*Ivox
*M2/4
*k[b-]
*F:
{8cc
8ff
8cc
8a
=1
16cc
16a
16cc
16dd
4ff
=2
8aa
16gg
16aa
4ff
=3
16dd
16cc
16dd
16ff
4cc
=4
16dd
16cc
16dd
16ff
4cc}
=5
{16f
16g
16a
16g
4a
=6
16cc
16dd
16cc
16a
4g
=7
16cc
16a
8cc
16dd
16cc
16a
16g
=8
2f}
=9
{8aa
16gg
16aa
4ff
=10
16dd
16cc
16dd
16ff
4cc
=11
16dd
16cc
16dd
16ff
4cc
=12
16ff
16ff
16dd
16cc
16ff
16ff
16dd
16cc
=13
16a
16cc
16dd
16ff
4cc}
=14
{16ff
16dd
8ff
16dd
16ff
16dd
16cc
=15
8a
8g
16cc
16cc
16a
16g
=16
2f}
==
!!!AGN: Xiaodiao. Laodong, Shouhuo
!!!ONB: ESAC (Essen Associative Code) Database: CHINA
!!!AMT: simple duple
!!!AIN: vox
!!!EED: Helmut Schaffrath
!!!EEV: 1.0
*-
